Source Files/Images/favicon.svg

<?xml version="1.0" encoding="UTF-8" standalone="no"?>
<!-- Created with Inkscape (http://www.inkscape.org/) -->

<svg
   width="128"
   height="128"
   viewBox="0 0 33.866667 33.866667"
   version="1.1"
   id="svg1"
   xml:space="preserve"
   inkscape:version="1.4 (e7c3feb1, 2024-10-09)"
   sodipodi:docname="favicon.svg"
   xmlns:inkscape="http://www.inkscape.org/namespaces/inkscape"
   xmlns:sodipodi="http://sodipodi.sourceforge.net/DTD/sodipodi-0.dtd"
   xmlns="http://www.w3.org/2000/svg"
   xmlns:svg="http://www.w3.org/2000/svg"><sodipodi:namedview
     id="namedview1"
     pagecolor="#ffffff"
     bordercolor="#000000"
     borderopacity="0.25"
     inkscape:showpageshadow="2"
     inkscape:pageopacity="0.0"
     inkscape:pagecheckerboard="0"
     inkscape:deskcolor="#d1d1d1"
     inkscape:document-units="mm"
     inkscape:zoom="0.78216891"
     inkscape:cx="203.2809"
     inkscape:cy="144.47007"
     inkscape:window-width="1200"
     inkscape:window-height="1027"
     inkscape:window-x="0"
     inkscape:window-y="25"
     inkscape:window-maximized="0"
     inkscape:current-layer="layer1" /><defs
     id="defs1" /><g
     inkscape:label="Layer 1"
     inkscape:groupmode="layer"
     id="layer1"
     transform="translate(-10.636672,-129.87752)"><g
       id="g8"
       transform="matrix(0.25042033,0,0,0.25042033,7.9509033,97.518281)"
       style="stroke-width:3.99329"><path
         id="path11"
         style="fill:#000000;stroke-width:3.99329"
         d="m 18.663055,181.23252 -1.548225,0.64958 -1.548743,0.64957 -0.03617,0.30024 c -0.03779,0.31257 -0.237524,3.34664 -0.488859,7.42125 -0.08053,1.30549 -0.46315,7.31372 -0.850077,13.35164 -0.386926,6.03791 -1.304083,20.37424 -2.038118,31.85852 -0.734036,11.48427 -1.355712,21.10575 -1.381312,21.38113 l -0.0062,0.0667 c -0.0072,0.0143 -0.04031,0.0236 -0.04031,0.0388 v 0.39532 7.7773 c 0,0.12272 0.24954,0.2217 0.559655,0.2217 H 145.40467 c 0.31012,0 0.55966,-0.099 0.55966,-0.2217 v -7.7773 -0.39532 c 0,-0.0182 -0.0382,-0.0296 -0.0486,-0.0465 -0.0237,-0.23656 -0.065,-0.79002 -0.10335,-1.45004 -0.0427,-0.73435 -0.14186,-2.33609 -0.22066,-3.55999 -0.0788,-1.22391 -0.22845,-3.56058 -0.33228,-5.19245 -0.29315,-4.60744 -1.2354,-19.36818 -1.81797,-28.48353 -0.30305,-4.74165 -0.4926,-7.73732 -0.5855,-9.25112 -0.0293,-0.47803 -0.0695,-0.88547 -0.0894,-0.90537 -0.0199,-0.0199 -0.41865,-0.21032 -0.88625,-0.42323 l -0.85008,-0.38705 -2.74453,-0.0553 c -1.50948,-0.0303 -4.64729,-0.0922 -6.9727,-0.13797 -2.32541,-0.0458 -8.30097,-0.16434 -13.2793,-0.26304 l -9.05164,-0.17932 -1.90893,0.35606 c -1.04975,0.19586 -1.91876,0.36994 -1.93166,0.38654 -0.0356,0.0459 -3.74609,4.25292 -4.86741,5.51904 l -0.984948,1.11259 0.03462,2.2624 c 0.01913,1.2443 0.214307,10.99921 0.434082,21.67774 l 0.387056,18.79886 h -4.354772 l -0.01809,-0.6997 c -0.01853,-0.72414 -0.132251,-7.5251 -0.252698,-15.11329 -0.120446,-7.58819 -0.250625,-15.64942 -0.289905,-17.91364 -0.03928,-2.26422 -0.107562,-6.58666 -0.151412,-9.60561 -0.04386,-3.01896 -0.09861,-6.05644 -0.121956,-6.74998 l -0.04289,-1.2609 -1.011308,-0.31213 -1.011825,-0.31213 -8.381917,-0.15296 c -4.610028,-0.084 -8.88256,-0.16817 -9.494511,-0.18707 -0.611951,-0.0189 -2.130688,-0.0537 -3.374988,-0.077 l -2.262394,-0.0424 -1.146183,0.26613 c -0.630342,0.14633 -1.159062,0.27898 -1.175122,0.29508 -0.01605,0.0161 -0.13992,1.25832 -0.275436,2.76055 l -0.246496,2.73162 -0.0801,7.67705 c -0.04398,4.22246 -0.09773,8.74558 -0.119372,10.05107 -0.02164,1.3055 -0.07283,5.36105 -0.113688,9.01236 -0.04086,3.6513 -0.106071,9.17519 -0.145211,12.27574 -0.03913,3.10055 -0.07175,6.16324 -0.07235,6.80579 l -5.17e-4,0.55139 h -3.63182 l 0.02532,-0.81081 c 0.02481,-0.78533 0.146216,-8.33752 0.269751,-16.78244 0.407807,-27.87805 0.508515,-34.54464 0.67231,-44.50581 0.04494,-2.73338 0.08723,-6.26895 0.09354,-7.8574 l 0.01033,-2.56677 c 0.0059,0.0157 0.0067,0.0897 0.01499,0.0579 0.01866,-0.0714 0.01866,-0.18801 0,-0.25941 -0.0011,-0.004 -9.78e-4,0.0111 -0.0021,0.008 -0.0026,-0.0152 0.005,-0.0326 0,-0.045 -0.0069,-0.017 -0.0069,0.0286 -0.0124,0.031 l 5.16e-4,-0.11368 -1.891357,-0.73226 -1.891874,-0.73174 -10.013343,-0.29094 c -5.507555,-0.1601 -14.73205,-0.42736 -20.49849,-0.59376 z" /></g></g></svg>

<?xml version="1.0" encoding="UTF-8" standalone="no"?>
<!-- Created with Inkscape (http://www.inkscape.org/) -->

<svg
   width="512"
   height="512"
   viewBox="0 0 135.46667 135.46667"
   version="1.1"
   id="svg1"
   xml:space="preserve"
   inkscape:version="1.4 (e7c3feb1, 2024-10-09)"
   sodipodi:docname="facicon.svg"
   xmlns:inkscape="http://www.inkscape.org/namespaces/inkscape"
   xmlns:sodipodi="http://sodipodi.sourceforge.net/DTD/sodipodi-0.dtd"
   xmlns="http://www.w3.org/2000/svg"
   xmlns:svg="http://www.w3.org/2000/svg"><sodipodi:namedview
     id="namedview1"
     pagecolor="#ffffff"
     bordercolor="#000000"
     borderopacity="0.25"
     inkscape:showpageshadow="2"
     inkscape:pageopacity="0.0"
     inkscape:pagecheckerboard="0"
     inkscape:deskcolor="#d1d1d1"
     inkscape:document-units="mm"
     inkscape:zoom="0.78216891"
     inkscape:cx="227.57233"
     inkscape:cy="444.91669"
     inkscape:window-width="1200"
     inkscape:window-height="1027"
     inkscape:window-x="0"
     inkscape:window-y="25"
     inkscape:window-maximized="0"
     inkscape:current-layer="layer1" /><defs
     id="defs1" /><g
     inkscape:label="Layer 1"
     inkscape:groupmode="layer"
     id="layer1"
     transform="translate(-10.636672,-129.87752)"><g
       id="g8"><path
         id="path11"
         style="fill:#000000"
         d="M 18.663055 181.23252 L 17.11483 181.8821 L 15.566087 182.53167 L 15.529913 182.83191 C 15.492122 183.14448 15.292389 186.17855 15.041054 190.25316 C 14.960527 191.55865 14.577904 197.56688 14.190977 203.6048 C 13.804051 209.64271 12.886894 223.97904 12.152859 235.46332 C 11.418823 246.94759 10.797147 256.56907 10.771547 256.84445 L 10.765346 256.91111 C 10.758101 256.92538 10.725039 256.93473 10.725039 256.94987 L 10.725039 257.34519 L 10.725039 265.12249 C 10.725039 265.24521 10.974579 265.34419 11.284694 265.34419 L 145.40467 265.34419 C 145.71479 265.34419 145.96433 265.24521 145.96433 265.12249 L 145.96433 257.34519 L 145.96433 256.94987 C 145.96433 256.93166 145.92613 256.92027 145.91575 256.90336 C 145.89209 256.6668 145.85078 256.11334 145.8124 255.45332 C 145.76969 254.71897 145.67054 253.11723 145.59174 251.89333 C 145.5129 250.66942 145.36329 248.33275 145.25946 246.70088 C 144.96631 242.09344 144.02406 227.3327 143.44149 218.21735 C 143.13844 213.4757 142.94889 210.48003 142.85599 208.96623 C 142.82669 208.4882 142.78649 208.08076 142.76659 208.06086 C 142.74668 208.04096 142.34794 207.85054 141.88034 207.63763 L 141.03026 207.25058 L 138.28573 207.19528 C 136.77625 207.16496 133.63844 207.10311 131.31303 207.05731 C 128.98762 207.01153 123.01206 206.89297 118.03373 206.79427 L 108.98209 206.61495 L 107.07316 206.97101 C 106.02341 207.16687 105.1544 207.34095 105.1415 207.35755 C 105.10591 207.4034 101.39541 211.61047 100.27409 212.87659 L 99.289142 213.98918 L 99.323765 216.25158 C 99.342897 217.49588 99.538072 227.25079 99.757847 237.92932 L 100.1449 256.72818 L 95.790131 256.72818 L 95.772044 256.02848 C 95.753516 255.30434 95.639793 248.50338 95.519346 240.91519 C 95.3989 233.327 95.268721 225.26577 95.229441 223.00155 C 95.190165 220.73733 95.121879 216.41489 95.078029 213.39594 C 95.034172 210.37698 94.979423 207.3395 94.956073 206.64596 L 94.913182 205.38506 L 93.901874 205.07293 L 92.890049 204.7608 L 84.508132 204.60784 C 79.898104 204.52385 75.625572 204.43967 75.013621 204.42077 C 74.40167 204.40187 72.882933 204.36708 71.638633 204.34378 L 69.376239 204.3014 L 68.230056 204.56753 C 67.599714 204.71386 67.070994 204.84651 67.054934 204.86261 C 67.03888 204.87867 66.915014 206.12093 66.779498 207.62316 L 66.533002 210.35478 L 66.452903 218.03183 C 66.408924 222.25429 66.355171 226.77741 66.333531 228.0829 C 66.311895 229.3884 66.260703 233.44395 66.219843 237.09526 C 66.178979 240.74656 66.113772 246.27045 66.074632 249.371 C 66.035502 252.47155 66.002877 255.53424 66.002285 256.17679 L 66.001768 256.72818 L 62.369948 256.72818 L 62.39527 255.91737 C 62.420075 255.13204 62.541486 247.57985 62.665021 239.13493 C 63.072828 211.25688 63.173536 204.59029 63.337331 194.62912 C 63.382271 191.89574 63.424566 188.36017 63.430866 186.77172 L 63.441201 184.20495 C 63.447117 184.22069 63.447869 184.29466 63.456187 184.26283 C 63.474847 184.19143 63.474847 184.07482 63.456187 184.00342 C 63.455071 183.99914 63.455209 184.01452 63.45412 184.01117 C 63.45155 183.99592 63.459107 183.97857 63.45412 183.96621 C 63.447263 183.9492 63.44726 183.99481 63.441718 183.99721 L 63.442234 183.88353 L 61.550877 183.15127 L 59.659003 182.41953 L 49.64566 182.12859 C 44.138105 181.96849 34.91361 181.70123 29.14717 181.53483 L 18.663055 181.23252 z " /></g></g></svg>
